images/themes/default/mIndicatorFilter.svg

<svg height="16" width="16" xmlns="http://www.w3.org/2000/svg"><path d="m2 2v1.705l1.016.003-.016-.013v-1.695zm.827 2.692 4.173 3.308v5.398l1 .495v-6.301l-3.917-2.894z" fill="#808080" fill-opacity=".422"/><path d="m1 1v3.212l5 4.19v5.608l4 2v-7.608l5-4.19v-3.212zm1 1h12v1.708h-12zm.867 2.708h10.266l-4.133 3.29v6.393l-2-1v-5.393z" fill="#2c2c2c" fill-opacity=".706"/></svg>

<svg xmlns="http://www.w3.org/2000/svg" height="16" width="16"><path d="M2 2v1.705l1.016.003L3 3.695V2zm.827 2.692L7 8v5.398l1 .495V7.592L4.083 4.698z" fill="gray" fill-opacity=".422"/><path style="line-height:normal;font-variant-ligatures:normal;font-variant-position:normal;font-variant-caps:normal;font-variant-numeric:normal;font-variant-alternates:normal;font-feature-settings:normal;text-indent:0;text-align:start;text-decoration-line:none;text-decoration-style:solid;text-decoration-color:#000;text-transform:none;text-orientation:mixed;shape-padding:0;isolation:auto;mix-blend-mode:normal" d="M1 1v3.212l5 4.19v5.608l4 2V8.402l5-4.19V1zm1 1h12v1.708H2zm.867 2.708h10.266L9 7.998v6.393l-2-1V7.998z" color="#000" font-weight="400" font-family="sans-serif" white-space="normal" overflow="visible" fill="#2c2c2c" fill-opacity=".706"/></svg>
